src/asset/svg/popular_32.svg

<?xml version="1.0" encoding="UTF-8"?>
<svg width="32px" height="32px" viewBox="0 0 32 32" version="1.1" xmlns="http://www.w3.org/2000/svg" xmlns:xlink="http://www.w3.org/1999/xlink">
    <!-- Generator: Sketch 46.1 (44463) - http://www.bohemiancoding.com/sketch -->
    <title>popular_32</title>
    <desc>Created with Sketch.</desc>
    <defs></defs>
    <g id="xiaojee_vote" stroke="none" stroke-width="1" fill="none" fill-rule="evenodd">
        <g id="ui" transform="translate(-305.000000, -368.000000)" fill-rule="nonzero" fill="#AAAAAA">
            <g id="热度-(2)" transform="translate(305.000000, 368.000000)">
                <path d="M14.5602285,30.5825813 L12.7619194,29.8488416 C8.17096353,27.9784522 5.25263854,25.3022428 4.32114026,22.1103826 C3.89605176,20.6447514 3.89235534,19.0885578 4.31374742,17.4880072 C4.73698771,15.8800637 5.58901293,14.2240668 6.85134096,12.5625252 C7.55920573,11.6088484 7.96581212,10.7919392 8.13399931,9.99166385 C8.3188204,9.11376369 8.21532059,8.20259572 7.81795525,7.20825827 L7.17292965,5.6003148 L8.85295334,6.24164397 C10.6623518,6.93102663 11.8396621,8.1489976 12.4735985,10.0138424 C12.7397408,9.36696858 12.9023834,8.62768422 12.9504369,7.8421946 C13.0446956,6.29524209 12.6898391,4.61152198 11.9468584,3.09968547 L11.4108772,2 L12.6861427,2.02772316 C12.8155175,2.03141958 16.0184669,2.13491939 19.5060409,5.33047601 L19.5282194,5.35265454 C20.4393874,6.25827787 21.1527968,7.17683868 21.7737956,8.24695278 C22.2635715,9.08788873 22.6812672,10.010146 23.0231862,11.0063316 C23.1525609,10.623752 23.2486679,10.2485652 23.2893285,9.90110152 L23.5462299,7.73869479 L24.7512634,9.58690567 C25.6180743,10.9176175 27.131759,13.7712551 27.5143386,15.7784121 C28.1260964,18.2882825 28.1612124,20.5283141 27.6122938,22.4338195 C27.1416793,24.0808231 26.1983576,25.5536388 24.8991202,26.6699189 C22.4354551,28.8212363 19.0587738,29.5716099 17.6171693,29.8913504 L14.8041924,30.5141975 L16.8908225,28.6123885 C18.5006141,27.1430608 19.1419433,25.4833675 18.7944797,23.6813619 C18.6289429,22.8524407 18.288023,22.068514 17.7945976,21.3821875 L17.7668744,21.3507679 L17.7446959,21.3138037 C17.0897048,20.275209 16.4261746,19.2420241 15.7541728,18.2143541 C14.8078888,18.8981921 13.7285336,19.8093601 13.1038384,21.1659468 C12.6879909,22.0641773 12.5068663,23.0917826 12.5641608,24.2228876 C12.6325446,25.5905637 13.0502403,27.1523019 13.8024621,28.8655934 L14.5602285,30.5825813 L14.5602285,30.5825813 Z M19.0846488,20.509832 C19.252836,20.7316173 20.0512631,21.8442402 20.3525215,23.4078266 C20.6534721,24.9259881 20.3696015,26.5018001 19.5577908,27.819506 C20.9328597,27.3759354 22.5444996,26.6791599 23.8271579,25.5591441 C24.9077492,24.6309203 25.6923561,23.4061368 26.0838234,22.0364542 C26.56251,20.369368 26.5218494,18.3733002 25.9655379,16.101849 L25.9581451,16.0630366 C25.7400562,14.9042084 25.0414325,13.314747 24.3428087,11.9969727 C24.1820144,12.4220612 24.0045862,12.8305158 23.8437918,13.2038544 L23.6183101,13.7398355 L22.6313655,16.1203311 L22.1027772,13.6104608 C21.2673858,9.63680736 19.5892104,7.59453434 18.3952661,6.40613474 C17.5081249,5.59292195 16.0831543,4.50617396 14.3051754,3.901809 C14.1828346,3.85970197 14.0595913,3.82026412 13.9355333,3.7835235 C14.4123717,5.14935134 14.6175231,6.55953625 14.5325054,7.92906051 C14.4216127,9.75878928 13.7747389,11.3889113 12.7120177,12.5237128 L11.5531894,13.7564694 L11.3332523,12.1171064 C11.1133153,10.4758951 10.6272358,9.33370078 9.78075521,8.55005937 C9.83989795,9.13779043 9.80847837,9.71443222 9.68834466,10.2873776 C9.47580041,11.3001972 8.98602453,12.3019275 8.14324036,13.4348807 L8.13954394,13.4404254 C6.9936532,14.9485654 6.22479747,16.434527 5.85145887,17.8539529 C5.49660238,19.1994505 5.49660238,20.4968945 5.84961066,21.7074726 C6.52975226,24.0399148 8.52397181,26.0821878 11.6585375,27.6771938 C11.2833203,26.5849727 11.055823,25.4474863 10.9820923,24.2949679 C10.9137085,22.92914 11.1391902,21.6742048 11.6511446,20.5615819 C12.5863393,18.5340946 14.2885415,17.3586324 15.414102,16.5805356 L16.1644756,16.0611884 L16.6228319,16.7136068 C17.2623129,17.6247748 18.8813456,20.1845469 19.0846488,20.509832 L19.0846488,20.509832 Z" id="popular_32"></path>
            </g>
        </g>
    </g>
</svg>

<svg width="32" height="32" viewBox="0 0 32 32" xmlns="http://www.w3.org/2000/svg"><title>popular_32</title><path d="M14.56 30.583l-1.798-.734c-4.591-1.87-7.51-4.547-8.44-7.739-.426-1.465-.43-3.021-.008-4.622.423-1.608 1.275-3.264 2.537-4.925.708-.954 1.115-1.771 1.283-2.571.185-.878.081-1.79-.316-2.784L7.173 5.6l1.68.642c1.81.689 2.987 1.907 3.62 3.772a6.828 6.828 0 0 0 .477-2.172c.095-1.547-.26-3.23-1.003-4.742L11.41 2l1.275.028c.13.003 3.332.107 6.82 3.302l.022.023a13.612 13.612 0 0 1 2.246 2.894c.49.84.907 1.763 1.25 2.76.129-.383.225-.758.265-1.106l.257-2.162 1.205 1.848c.867 1.33 2.38 4.184 2.763 6.191.612 2.51.647 4.75.098 6.656A8.757 8.757 0 0 1 24.9 26.67c-2.464 2.151-5.84 2.902-7.282 3.221l-2.813.623 2.087-1.902c1.61-1.469 2.25-3.129 1.903-4.93a5.927 5.927 0 0 0-1-2.3l-.027-.031-.022-.037a223.726 223.726 0 0 0-1.99-3.1c-.947.684-2.026 1.595-2.651 2.952-.416.898-.597 1.926-.54 3.057.069 1.368.486 2.93 1.238 4.643l.758 1.717zm4.525-10.073a7.371 7.371 0 0 1 1.268 2.898 6.136 6.136 0 0 1-.795 4.412c1.375-.444 2.986-1.14 4.27-2.26a7.282 7.282 0 0 0 2.256-3.524c.479-1.667.438-3.663-.118-5.934l-.008-.039c-.218-1.159-.917-2.748-1.615-4.066-.161.425-.338.834-.5 1.207l-.225.536-.987 2.38-.528-2.51c-.836-3.973-2.514-6.015-3.708-7.204-.887-.813-2.312-1.9-4.09-2.504a8.912 8.912 0 0 0-.37-.118c.477 1.365.683 2.776.598 4.145-.111 1.83-.758 3.46-1.821 4.595l-1.159 1.232-.22-1.639c-.22-1.641-.706-2.783-1.552-3.567.059.588.027 1.164-.093 1.737-.212 1.013-.702 2.015-1.545 3.148l-.003.005c-1.146 1.509-1.915 2.995-2.289 4.414-.354 1.345-.354 2.643-.001 3.853.68 2.333 2.674 4.375 5.809 5.97a12.956 12.956 0 0 1-.677-3.382c-.068-1.366.157-2.62.67-3.733.934-2.028 2.637-3.203 3.762-3.981l.75-.52.459.653c.64.91 2.258 3.47 2.462 3.796z" fill-rule="nonzero" fill="#AAA"/></svg>
